X: 57
T: Gypsy Round
M:3/4
R:waltz
L:1/8
Z:Alf Warnock - alf0@rogers.com
K:Am
"Am"e3c A2| A2 c2 e2| "D"de de de|^f3e d2|
"Em"g3^f e2| "D"^f2 d2 "G"B2| "C"e3d c2| "G"d2 B2 G2|
"Am"GB AB cd|"C"e3^f ge|"D"a3g ^f2| "Em"e6:|
|: "Am"e2 a2 b2| "Em"g3^f e2| "G"d2 e2 B2| "Am"c3B A2|
"G"GA Bc dB|"C"e3d c2| "G"d2 B2 c2| "Am"A6 :|
